X:1
T:The Midnight Cry
T:The Midnight Cry
T:Leander Lycurgus Pickett
T:Martin Wells Knapp, 1897
T:Public Domain Courtesy of the Cyber Hymnal™
T:Public Domain Courtesy of the Cyber Hymnal™
C:Leander Lycurgus Pickett
Z:Public Domain
Z:Courtesy of the Cyber Hymnal™
%%score ( 1 2 ) 3
L:1/8
Q:1/4=100
M:4/4
K:C
V:1 treble 
V:2 treble 
V:3 bass 
V:1
 [EG]>[EG] | [Ec]2 [Ec]>[Ec] [Ec]2 [GB]>[FA] | [FA] [EG]4 z [EG][EG] | %3
w: 1.~A- t|mid- night the sum- mons will|e- cho, “A- wake,|
w: 2.~Then the|Bride- groom in glo- ry des-|cend- ing, Will ap-|
w: 3.~While the|fool- ish are vain- ly in-|quir- ing, Th- e|
w: 4.~Have you|tak- en the oil in your|ves- sels? Does the|
 [DG]2 [DG]>[DG] [DF]2 [EG]>[DF] | [CE]6 [EG]>[EG] | [Ec]2 [Ec]>[Ec] [Ec]2 [GB]>[FA] | %6
w: for the Bri- de- groom has|come!” Th- e|wise thrill with joy at the|
w: pear with His host in the|air, And His|bride fly with glad- ness to|
w: Bride- groom will come with a|shout, And the|wise will go in to the|
w: Spir- it with- in you a-|bide? Are you|cleansed in the blood ev- ery|
 [FA] [EG]4 z [EG][EG] | [DG]2 [DG]>[DG] [DG]2 [CA]>[DB] | [Ec]6 [Ec][Ec] | %9
w: tid- ings, Th- e|fool- ish with ter- ror be|dumb. The- ir|
w: greet Him, S- o|beau- ti- ful, ho- ly and|fair. All the|
w: mar- riage, But the|fool- ish, re- fused, be shut|out. They will|
w: mo- ment? Are you|watch- ing and now sanc- ti-|fied? Soon, too|
 [FA]2 [FA]>[FA] [Ac]2 [GB]>[FA] | [FA] [EG]4 z [EG]2 | [DG]2 [DG]>[DG] [DF]2 [EG]>[DF] | %12
w: lamps will be burn- ing but|dim- ly, “Give|us of your oil” be their|
w: saints that have died thro’ the|ag- es, Will~as-|cend from their graves to the|
w: plead all in vain, “o- pen|to us”; No|wel- come will wait them with-|
w: late, to pre- pare for the|mar- riage, Or|ev- er ad- mit- tance to|
 [CE]6 [EG][EG] | [Ec]2 [Ec]>[Ec] [Ec]2 [Ge]>[Ge] | [Fd]4 [FA]2 [FA][FA] | %15
w: prayer; “Not e-|nough, go and buy,” be the|an- swer. To- o|
w: sky, An- d|those who on earth then are|liv- ing, Will be|
w: in; Th- e|Bride- groom Him- self will not|know them, A- ll|
w: gain; Soon the|wise will with glad- ness have|en- tered, And the|
 [DG]2 [DG]>[DG] .[FB]2 [FA]>[FB] | [Ec]6 ||"^Refrain" [EG]2 | [EG]2 [EG]>[EG] [FA]2 [EG]>[EG] | %19
w: late, ’twill be then to pre-|pare.|||
w: changed in the flash of an|eye.|And|oh, what a rap- ture and|
w: stained be their gar- ments with|sin.|||
w: fool- ish stand knock- ing in|vain.|||
 [Ec]4 [EG]2 [EG]2 | [FA]2 [FA]>[FA] [^FA]2 [Fd]>[Fc] | [GB]6 [FA]2 | %22
w: |||
w: glo- ry Will|thrill thro’ the heart of the|Bride! But,|
w: |||
w: |||
 [EG]2 [EG]>[EG] [Ec]2 [Ge]>[Ge] | (d3 A) [Fc]2 [FA]2 | [DG]2 [DG]>[DG] .[FB]2 [FA]>[FB] | [Ec]6 |] %26
w: ||||
w: oh, the des- pair and the|an- * guish Of|those who stand knock- ing out-|side.|
w: ||||
w: ||||
V:2
 x2 | x8 | x8 | x8 | x8 | x8 | x8 | x8 | x8 | x8 | x8 | x8 | x8 | x8 | x8 | x8 | x6 || x2 | x8 | %19
 x8 | x8 | x8 | x8 | F4 x4 | x8 | x6 |] %26
V:3
 [C,C]>[C,C] | [C,G,]2 [C,G,]>[C,G,] [C,G,]2 [C,G,]>[C,G,] | [C,C] [C,C]4 z [C,C][C,C] | %3
 [G,,B,]2 [G,,B,]>[G,,B,] [G,,B,]2 [G,,G,]>[G,,G,] | [C,G,]6 [C,C]>[C,C] | %5
 [C,G,]2 [C,G,]>[C,G,] [C,G,]2 [C,G,]>[C,G,] | [C,C] [C,C]4 z [C,C][C,C] | %7
 [G,,B,]2 [G,,B,]>[G,,B,] [G,,B,]2 [G,,G,]>[G,,G,] | [C,G,]6 [C,C][C,C] | %9
 [F,C]2 [F,C]>[F,C] [F,C]2 [F,C]>[F,C] | [C,C] [C,C]4 z [C,C]2 | %11
 [G,,B,]2 [G,,B,]>[G,,B,] [G,,G,B,]2 [G,,G,]>[G,,G,] | [C,G,]6 [C,C][C,C] | %13
 [C,G,]2 [C,G,]>[C,G,] [C,G,]2 [C,C]>[C,C] | [F,A,]4 [F,D]2 [F,C][F,C] | %15
 [G,B,]2 [G,B,]>[G,A,] .[G,,G,]2 [G,,G,]>[G,,G,] | [C,G,]6 || [C,C]2 | %18
 [C,C]2 [C,C]>[C,C] [C,C]2 [C,C]>[C,C] | [C,G,]4 [C,C]2 [C,C]2 | %20
 [F,C]2 [F,C]>[F,C] [D,C]2 [D,A,]>[D,D] | [G,D]6 [G,B,]2 | [C,C]2 [C,C]>[C,C] [C,G,]2 [C,C]>[C,C] | %23
 [F,C]4 [F,A,]2 [F,C]2 | [G,B,]2 [G,B,]>[G,B,] .[G,,G,]2 [G,,G,]>[G,,G,] | [C,G,]6 |] %26

